X: 5
T: The Lark In The Morning
R: jig
M: 6/8
L: 1/8
K: Dmaj
||A3 AFA|BGB BdB|AFA ABd|fed edB|AFA AFA|BGB BAB|def afe|fdB BdB||A3 Ad=c|BBB BdB|AAA AFA|fed edB|AFA Ad=c|BGB BAB|def afe|fdB BAB||


Tune 62	Setting 20719

